src/assets/links.svg

<svg width="40" height="40" viewBox="0 0 40 40" fill="none" xmlns="http://www.w3.org/2000/svg">
<mask id="mask0_1744_232" style="mask-type:alpha" maskUnits="userSpaceOnUse" x="0" y="0" width="40" height="40">
<rect width="40" height="40" fill="#D9D9D9"/>
</mask>
<g mask="url(#mask0_1744_232)">
<path d="M8.97453 35.192C7.81703 35.192 6.83314 34.787 6.02286 33.977C5.21286 33.1667 4.80786 32.1829 4.80786 31.0254C4.80786 30.0473 5.10175 29.1892 5.68953 28.4512C6.27758 27.7131 7.02356 27.2269 7.92744 26.9924V13.0074C7.02356 12.773 6.27758 12.2867 5.68953 11.5487C5.10175 10.8106 4.80786 9.95258 4.80786 8.97453C4.80786 7.81703 5.21286 6.83314 6.02286 6.02286C6.83314 5.21286 7.81703 4.80786 8.97453 4.80786C9.95258 4.80786 10.8106 5.10175 11.5487 5.68953C12.2868 6.27758 12.773 7.02356 13.0074 7.92744H26.9924C27.2211 7.02356 27.7069 6.27758 28.4499 5.68953C29.1927 5.10175 30.0512 4.80786 31.0254 4.80786C32.1829 4.80786 33.1667 5.21286 33.977 6.02286C34.787 6.83314 35.192 7.81703 35.192 8.97453C35.192 9.9487 34.8981 10.8072 34.3104 11.5499C33.7223 12.293 32.9763 12.7788 32.0724 13.0074V26.9924C32.9763 27.2269 33.7223 27.7131 34.3104 28.4512C34.8981 29.1892 35.192 30.0473 35.192 31.0254C35.192 32.1829 34.787 33.1667 33.977 33.977C33.1667 34.787 32.1829 35.192 31.0254 35.192C30.0473 35.192 29.1893 34.8981 28.4512 34.3104C27.7131 33.7223 27.2269 32.9763 26.9924 32.0724H13.0074C12.773 32.9763 12.2868 33.7223 11.5487 34.3104C10.8106 34.8981 9.95258 35.192 8.97453 35.192ZM8.97411 11.047C9.56106 11.047 10.0533 10.8484 10.4508 10.4512C10.8483 10.054 11.047 9.56175 11.047 8.97453C11.047 8.38758 10.8484 7.89536 10.4512 7.49786C10.054 7.10036 9.56175 6.90161 8.97453 6.90161C8.38758 6.90161 7.89536 7.10022 7.49786 7.49744C7.10036 7.89467 6.90161 8.38689 6.90161 8.97411C6.90161 9.56106 7.10022 10.0533 7.49744 10.4508C7.89467 10.8483 8.38689 11.047 8.97411 11.047ZM31.0254 11.047C31.6123 11.047 32.1045 10.8484 32.502 10.4512C32.8995 10.054 33.0983 9.56175 33.0983 8.97453C33.0983 8.38758 32.8997 7.89536 32.5024 7.49786C32.1052 7.10036 31.613 6.90161 31.0258 6.90161C30.4388 6.90161 29.9466 7.10022 29.5491 7.49744C29.1516 7.89467 28.9529 8.38689 28.9529 8.97411C28.9529 9.56106 29.1515 10.0533 29.5487 10.4508C29.9459 10.8483 30.4381 11.047 31.0254 11.047ZM13.0087 29.9787H26.9924C27.1813 29.2451 27.5429 28.6112 28.077 28.077C28.6112 27.5429 29.2451 27.1809 29.9787 26.9912V13.0074C29.2379 12.8222 28.6012 12.4634 28.0687 11.9312C27.5365 11.3987 27.1777 10.762 26.9924 10.0212H13.0087C12.819 10.7548 12.457 11.3887 11.9229 11.9229C11.3887 12.457 10.7548 12.819 10.0212 13.0087V26.9924C10.7548 27.1813 11.3887 27.5429 11.9229 28.077C12.457 28.6112 12.819 29.2451 13.0087 29.9787ZM31.0254 33.0983C31.6123 33.0983 32.1045 32.8997 32.502 32.5024C32.8995 32.1052 33.0983 31.613 33.0983 31.0258C33.0983 30.4388 32.8997 29.9466 32.5024 29.5491C32.1052 29.1516 31.613 28.9529 31.0258 28.9529C30.4388 28.9529 29.9466 29.1515 29.5491 29.5487C29.1516 29.9459 28.9529 30.4381 28.9529 31.0254C28.9529 31.6123 29.1515 32.1045 29.5487 32.502C29.9459 32.8995 30.4381 33.0983 31.0254 33.0983ZM8.97411 33.0983C9.56106 33.0983 10.0533 32.8997 10.4508 32.5024C10.8483 32.1052 11.047 31.613 11.047 31.0258C11.047 30.4388 10.8484 29.9466 10.4512 29.5491C10.054 29.1516 9.56175 28.9529 8.97453 28.9529C8.38758 28.9529 7.89536 29.1515 7.49786 29.5487C7.10036 29.9459 6.90161 30.4381 6.90161 31.0254C6.90161 31.6123 7.10022 32.1045 7.49744 32.502C7.89467 32.8995 8.38689 33.0983 8.97411 33.0983Z" fill="white"/>
</g>
</svg>

<svg width="40" height="40" viewBox="0 0 40 40" fill="none" xmlns="http://www.w3.org/2000/svg"><mask id="mask0_1744_232" style="mask-type:alpha" maskUnits="userSpaceOnUse" x="0" y="0" width="40" height="40"><path fill="#d9d9d9" d="M0 0h40v40H0z"/></mask><g mask="url(#mask0_1744_232)"><path d="M8.975 35.192q-1.737 0-2.952-1.215t-1.215-2.952q0-1.467.882-2.574a4.1 4.1 0 0 1 2.237-1.459V13.007A4.1 4.1 0 0 1 5.69 11.55q-.882-1.107-.882-2.574 0-1.737 1.215-2.952t2.952-1.215q1.467 0 2.574.882a4.1 4.1 0 0 1 1.458 2.237h13.985A4.05 4.05 0 0 1 28.45 5.69q1.114-.882 2.575-.882 1.737 0 2.952 1.215t1.215 2.952q0 1.46-.882 2.575a4.05 4.05 0 0 1-2.238 1.457v13.985q1.356.352 2.238 1.46.882 1.106.882 2.573 0 1.737-1.215 2.952t-2.952 1.215q-1.467 0-2.574-.882a4.1 4.1 0 0 1-1.459-2.238H13.007a4.1 4.1 0 0 1-1.458 2.238q-1.107.882-2.574.882m0-24.145q.879 0 1.476-.596.596-.596.596-1.476 0-.881-.596-1.477t-1.476-.596-1.477.595-.596 1.477.595 1.477 1.477.596m22.05 0q.881 0 1.477-.596t.596-1.476-.596-1.477q-.595-.596-1.476-.596t-1.477.595-.596 1.477.596 1.477 1.476.596M13.01 29.979h13.983a4.1 4.1 0 0 1 1.085-1.902 4.1 4.1 0 0 1 1.902-1.086V13.007a4.04 4.04 0 0 1-1.91-1.076 4.04 4.04 0 0 1-1.077-1.91H13.01a4.1 4.1 0 0 1-1.086 1.902 4.1 4.1 0 0 1-1.902 1.086v13.983q1.101.284 1.902 1.085a4.1 4.1 0 0 1 1.086 1.902m18.016 3.12q.881 0 1.477-.597.596-.595.596-1.476t-.596-1.477-1.476-.596-1.477.596-.596 1.476q0 .881.596 1.477t1.476.596m-22.05 0q.879 0 1.476-.597.596-.595.596-1.476t-.596-1.477-1.476-.596q-.881 0-1.477.596t-.596 1.476.595 1.477 1.477.596" fill="#fff"/></g></svg>
